icons/wrap-24.svg

<svg width="24" height="24" viewBox="0 0 24 24" fill="none" xmlns="http://www.w3.org/2000/svg">
<path d="M17 11.25C18.1144 11.25 19.1728 11.5273 19.9688 12.1641C20.7872 12.8188 21.25 13.7928 21.25 15C21.25 16.2072 20.7872 17.1812 19.9688 17.8359C19.1728 18.4727 18.1144 18.75 17 18.75H16.5V19.7324C16.4997 20.1171 16.0832 20.3574 15.75 20.165L12.75 18.4326C12.4169 18.2401 12.4169 17.7599 12.75 17.5674L15.75 15.835C16.0832 15.6426 16.4997 15.8829 16.5 16.2676V17.25H17C17.8856 17.25 18.5772 17.0273 19.0312 16.6641C19.4628 16.3188 19.75 15.7928 19.75 15C19.75 14.2072 19.4628 13.6812 19.0312 13.3359C18.5772 12.9727 17.8856 12.75 17 12.75H3.82031C3.40616 12.7499 3.07031 12.4142 3.07031 12C3.07031 11.5858 3.40616 11.2501 3.82031 11.25H17ZM9.25 17.25C9.44891 17.25 9.63962 17.3291 9.78027 17.4697C9.92093 17.6104 10 17.8011 10 18C10 18.1989 9.92093 18.3896 9.78027 18.5303C9.63962 18.6709 9.44891 18.75 9.25 18.75H3.75C3.55109 18.75 3.36038 18.6709 3.21973 18.5303C3.07907 18.3896 3 18.1989 3 18C3 17.8011 3.07907 17.6104 3.21973 17.4697C3.36038 17.3291 3.55109 17.25 3.75 17.25H9.25ZM20.25 5.25C20.4489 5.25 20.6396 5.32907 20.7803 5.46973C20.9209 5.61038 21 5.80109 21 6C21 6.19891 20.9209 6.38962 20.7803 6.53027C20.6396 6.67093 20.4489 6.75 20.25 6.75H3.75C3.55109 6.75 3.36038 6.67093 3.21973 6.53027C3.07907 6.38962 3 6.19891 3 6C3 5.80109 3.07907 5.61038 3.21973 5.46973C3.36038 5.32907 3.55109 5.25 3.75 5.25H20.25Z" fill="black"/>
</svg>

<svg xmlns="http://www.w3.org/2000/svg" width="24" height="24" viewBox="0 0 24 24"><path d="M17 11.25c1.114 0 2.173.277 2.969.914.818.655 1.281 1.629 1.281 2.836 0 1.207-.463 2.181-1.281 2.836-.796.637-1.855.914-2.969.914h-.5v.982a.5.5 0 0 1-.75.433l-3-1.732a.5.5 0 0 1 0-.866l3-1.732a.5.5 0 0 1 .75.433v.982h.5c.886 0 1.577-.223 2.031-.586.432-.345.719-.871.719-1.664 0-.793-.287-1.319-.719-1.664-.454-.363-1.145-.586-2.031-.586H3.82a.75.75 0 0 1 0-1.5H17Zm-7.75 6c.199 0 .39.079.53.22a.747.747 0 0 1 0 1.06.747.747 0 0 1-.53.22h-5.5a.747.747 0 0 1-.53-.22.747.747 0 0 1 0-1.06.747.747 0 0 1 .53-.22h5.5Zm11-12c.199 0 .39.079.53.22a.747.747 0 0 1 0 1.06.747.747 0 0 1-.53.22H3.75a.747.747 0 0 1-.53-.22.747.747 0 0 1 0-1.06.747.747 0 0 1 .53-.22h16.5Z"/></svg>
